react/assets/icons/car.svg

<svg width="48" height="48" viewBox="0 0 24 24" fill="none" xmlns="http://www.w3.org/2000/svg" aria-labelledby="carIconTitle" stroke-linecap="square"><path d="M5 11l2-6h10l2 6M5 11h14M5 11v6m14-6v6M5 17v2h1v-2m-1 0h1m13 0v2h-1v-2m1 0h-1M6 17h12"/><circle cx="8" cy="14" r="1"/><circle cx="16" cy="14" r="1"/></svg>

<svg width="48px" height="48px" viewBox="0 0 24 24" fill="none" xmlns="http://www.w3.org/2000/svg" aria-labelledby="carIconTitle" stroke-linecap="square" stroke-linejoin="miter"> <title id="carIconTitle">Car</title> <path d="M5 11L7 5H17L19 11M5 11H19M5 11V17M19 11V17M5 17V19H6V17M5 17H6M19 17V19H18V17M19 17H18M6 17H18"/> <circle cx="8" cy="14" r="1"/> <circle cx="16" cy="14" r="1"/> </svg>
